X: 35305
T: Rose Tree, The
R: reel
M: 4/4
K: Ddorian
FD (3DDD defd|cdAc ECCE|FD (3DDD defd|cGAc dDDE:|
AD FD EGGF|ECGC ACGC|AD (3FED EGGF|EGcG ED D2|
AD FD EGGF|EGcd eg(3ggg|afge fdec|Adce fd d2||

